assets/svg/zip-file.svg

<svg width="1024" height="1024" xmlns="http://www.w3.org/2000/svg" p-id="2209" version="1.1" class="icon" t="1721619747810">

 <g>
  <title>Layer 1</title>
  <path id="svg_1" p-id="2210" fill="#576A95" d="m160,0l512,0l256,256l0,704c0,35.3472 -28.6528,64 -64,64l-704,0c-35.3472,0 -64,-28.6528 -64,-64l0,-896c0,-35.3472 28.6528,-64 64,-64z"/>
  <path id="svg_2" p-id="2211" fill="#FFFFFF" d="m582.4,629.2544l0,139.0592a34.7328,34.7328 0 0 1 -10.208,24.5824a34.8608,34.8608 0 0 1 -24.6272,10.1824l-71.1296,0a34.8736,34.8736 0 0 1 -24.6272,-10.176a34.7328,34.7328 0 0 1 -10.208,-24.5952l0,-139.0528l140.8,0zm-34.8352,79.6672l-71.1296,0l0,69.824l71.1296,0l0,-69.824zm33.6704,-218.7264l0,69.824l-69.9584,0l0,-69.824l69.9584,0zm-69.088,-490.1952l0,70.4l70.2528,0l0,70.4l-70.2592,0l0,65.184l70.2592,0l0,70.4l-70.2528,0l0,69.536l70.2528,0l0,69.536l-70.2528,0l0,69.5296l-70.5472,0l0,-69.536l70.2528,0l0,-69.536l-70.2528,0l0,-69.5296l70.2528,0l0,-70.4l-70.2528,0l0,-70.4l70.2528,0l0,-65.184l-70.2528,0l0,-70.4l70.5472,0z"/>
  <path id="svg_3" p-id="2212" fill="#BBC3D4" d="m672,0l256,256l-192,0c-35.3472,0 -64,-28.6528 -64,-64l0,-192z"/>
 </g>
</svg>

<svg t="1721619747810" class="icon" viewBox="0 0 1024 1024" version="1.1" xmlns="http://www.w3.org/2000/svg" p-id="2209" width="200" height="200"><path d="M160 0h512l256 256v704c0 35.3472-28.6528 64-64 64H160c-35.3472 0-64-28.6528-64-64V64c0-35.3472 28.6528-64 64-64z" fill="#576A95" p-id="2210"></path><path d="M582.4 629.2544v139.0592a34.7328 34.7328 0 0 1-10.208 24.5824 34.8608 34.8608 0 0 1-24.6272 10.1824H476.4352a34.8736 34.8736 0 0 1-24.6272-10.176A34.7328 34.7328 0 0 1 441.6 768.3072V629.2544h140.8z m-34.8352 79.6672H476.4352v69.824h71.1296v-69.824z m33.6704-218.7264v69.824H511.2768v-69.824h69.9584zM512.1472 0v70.4H582.4v70.4H512.1408v65.184H582.4v70.4H512.1472V345.92H582.4v69.536H512.1472v69.5296H441.6V415.4496h70.2528V345.9136H441.6V276.384h70.2528v-70.4H441.6v-70.4h70.2528V70.4H441.6V0h70.5472z" fill="#FFFFFF" p-id="2211"></path><path d="M672 0l256 256h-192c-35.3472 0-64-28.6528-64-64V0z" fill="#BBC3D4" p-id="2212"></path></svg>
